X:7
T:Bourrée in E minor (BWV 996)
C:Bach, J.S.
M:2/4
L:1/16
Q:1/4=116
K:Emin
|:EF|GFED EFGA|B2G2 B2d2|c2A2 cdef|g4 B2ef|
gfed cBAG|FGAB cdef|gfed cBAB|E8:|
|:GF|EDCB, CDEF|G2E2 G2B2|A2F2 ABcd|e4 G2Bc|
dcBA GFED|EFGA Bcde|fedcBAGF|E8:|

